src/assets/fleet-icons/sms.svg

<svg width="20" height="20" viewBox="0 0 20 20" fill="none" xmlns="http://www.w3.org/2000/svg">
<path d="M9.99998 15.2083C13.2216 15.2083 16.0416 13.4627 16.0416 9.58334C16.0416 5.70403 13.2216 3.95834 9.99998 3.95834C6.77832 3.95834 3.95831 5.70403 3.95831 9.58334C3.95831 11.0562 4.36483 12.2216 5.04551 13.1005C5.24463 13.3577 5.32374 13.6993 5.1859 13.9939C5.10194 14.1733 5.01359 14.3445 4.92325 14.5068C4.54472 15.1868 5.06624 16.1776 5.82936 16.0248C6.67607 15.8553 7.62291 15.6017 8.41283 15.2282C8.57771 15.1502 8.76112 15.1199 8.94205 15.1429C9.28749 15.1867 9.64124 15.2083 9.99998 15.2083Z" stroke="#656565" stroke-linecap="round" stroke-linejoin="round"/>
</svg>

<svg width="20" height="20" fill="none" xmlns="http://www.w3.org/2000/svg">
    <path
        d="M10 15.208c3.222 0 6.042-1.745 6.042-5.625 0-3.879-2.82-5.625-6.042-5.625S3.958 5.704 3.958 9.583c0 1.473.407 2.639 1.088 3.518.199.257.278.598.14.893-.084.18-.172.35-.263.513-.378.68.143 1.67.906 1.518.847-.17 1.794-.423 2.584-.797a.956.956 0 0 1 .529-.085c.345.044.7.065 1.058.065Z"
        stroke="#656565" stroke-linecap="round" stroke-linejoin="round" />
</svg>
